!!!OTL: WEM WOELL WIR DIESEN REBNER BRINGEN
!!!ARE: Europa, Mitteleuropa, Deutschland
!!!SCT: E1126
!!!YEM: Copyright 1995, estate of Helmut Schaffrath.
**kern
*ICvox
*Ivox
*M3/4
*k[]
*C:
=1
{4c
4c
4c
=2
2e
4f
=3
2g
4g
=4
4e
4e}
{4a
=5
2g
4g
=6
4e
4e
4a
=7
2g
4g
=8
4e
4e}
{4e
=9
4e
4e
4e
=10
2e
4e
=11
2f
4e
=12
4d
4d}
{4d
=13
2c
4A
=14
2c}
{4e
=15
4e
4e
4e
=16
2e
4e
=17
2f
4e
=18
4d
4d}
{4d
=19
2c
4A
=20
2.c}
==
!!!AGN: Trink -, Zech - Lied
!!!ONB: ESAC (Essen Associative Code) Database: ERK3
!!!AMT: simple triple
!!!AIN: vox
!!!EED: Helmut Schaffrath
!!!EEV: 1.0
*-
